X: 19
T: Piano Sonata No. 6 in D major, K 284 (205b), mvmt. 3b
C: Wolfgang Amadeus Mozart
%%abc-version 2.0
%%abcx-abcm2ps-target-version 5.9.1 (29 Sep 2008)
%%abc-creator hum2abc beta
%%abcx-conversion-date 2021/01/14 17:01:33
%%abc-copyright 2018 Craig Stuart Sapp
%%abc-edited-by Craig Stuart Sapp
%%abc-edited-by Craig Stuart Sapp
%%abcx-initial-encoding-date 2009/09/18
%%gracespace 0 6 6
%%humdrum-veritas 3982513296
%%humdrum-veritas-data 1010198231
%%linebreak <none>
%%barnumbers 0
L: 1/8
M: C|
N: Derived from sonata06-3b.krn
Q: "Variation 1" 1/2=60
%%staves {1 2}
V: 1 clef=treble
V: 2 clef=bass
K: D
[V:1] (3AB^G (3ABc [I:setbarnb 1]| 
[V:2] z4 | 
[V:1] (3dec (3dec (3dfe (3def | 
[V:2] [D,2F,2]z2[F,2A,2]z2 | 
[V:1] (3gaf (3ged (3ce^d (3efg | 
[V:2] [E,2B,2]z2A,2z2 | 
[V:1] (3^gaf (3gaf (3^ab=g (3abg | 
[V:2] [F,4D4][G,4D4] | 
[V:1] f2e2(3AB^G (3ABc | 
[V:2] D2C2x4 & A,4z4 | 
[V:1] (3dec (3dd'c' (3bc'^a (3bc'=a | 
[V:2] z2[K:clef=treble][F2A2]z2[D2F2] | 
[V:1] (3^gaf (3gaf (3ef^d (3ef=d | 
[V:2] z2[K:clef=bass][B,2D2]z2[^G,2B,2] | 
[V:1] (3cea (3^efd (3^d=ec (3c=dB | 
[V:2] A,2[D,2B,2][E,2C2][E,2^G,2D2] | 
[V:1] B2A2 :|]|:  
[V:2] D2C2 & A,4 :|]|:  
[V:1] (3ab^g (3abg [I:setbarnb 9]| 
[V:2] z4[K:clef=treble] | 
[V:1] (3afb (3^g^de (3=gea (3fc=d | 
[V:2] B4A4 & ^D2E2C2=D2 | 
[V:1] (3dd'c' (3Bb^a (3Bb=a (3Ggf | 
[V:2] BAGF GFED | 
[V:1] (3gag (3fgf (3efe (3ded | 
[V:2] A6^G2 & C2D2C2B,2 | 
[V:1] f2e xx4 & A2-A z (3ab^g (3abg | 
[V:2] D2C zz4 & A,2-A, xx4 | 
[V:1] a zz2(3AB^G (3ABc | 
[V:2] z8 | 
[V:1] (3dec (3d^ef (3d^ab (3dc'd' | 
[V:2] z2[F2A2]z2[D2F2][K:clef=bass] & D4B,4 | 
[V:1] (3g=af (3g^d=e (3g^Bc (3g^GA | 
[V:2] z2[B,2E2]z2[C2E2] & G,4A,4 | 
[V:1] (3fad' (3^ab=g (3^g=af (3f=ge | 
[V:2] D2[G,2E2][A,2D2][A,2C2] | 
[V:1] [G2e2][F2d2] :|]  
[V:2] C2D2 & D,4 :|]  


